tools/download-figma-icons/icons/solid/gas-storage.svg

<svg width="24" height="24" viewBox="0 0 24 24" fill="none" xmlns="http://www.w3.org/2000/svg">
<path fill-rule="evenodd" clip-rule="evenodd" d="M23.625 7.87496C22.8885 8.66471 21.1155 10.0567 17.6251 10.4999C16.7498 8.74946 14.1443 6.08247 9.7501 5.62497C11.0168 4.57498 12.9676 3.74998 15.7501 3.74998C20.8725 3.74998 22.8975 6.36747 23.625 7.87496ZM15.6727 11.7728L15.6727 11.7728C16.0204 11.5741 16.3551 11.3829 16.5001 11.25C16.4251 11.0325 16.1393 10.509 15.7426 9.99598C14.7031 8.64973 12.8701 6.89249 8.73761 6.75749C8.68294 6.75252 8.61642 6.75184 8.56292 6.75128H8.56291C8.53567 6.751 8.51181 6.75075 8.49461 6.74999C8.43972 6.7475 8.38616 6.74832 8.33216 6.74916C8.305 6.74957 8.27772 6.74999 8.25011 6.74999C4.17088 6.74999 1.91564 8.51774 0.850648 9.98098C0.527399 10.4227 0.150151 10.9575 0.000152043 11.25C0.644399 11.85 3.03764 13.365 8.28761 13.365C12.0826 13.365 14.2651 12.5775 15.4208 11.9175C15.5038 11.8694 15.5884 11.821 15.6723 11.773L15.6727 11.7728ZM16.4999 13.0051C15.1799 13.8601 12.6824 14.8651 8.28746 14.8651C3.81748 14.8651 1.30499 13.8301 0 12.9676V17.2501C0 17.2613 0.00368833 17.2723 0.0074071 17.2833L0.00740768 17.2833L0.00740818 17.2833C0.0111885 17.2946 0.0149999 17.3059 0.0149999 17.3176C0.0149999 17.3701 0.0299998 17.4144 0.0457498 17.4601C0.0599997 17.5119 0.0749996 17.5576 0.0974995 17.6019C0.0974995 17.6101 0.104999 17.6251 0.113249 17.6319C0.113249 17.6394 0.119999 17.6551 0.127499 17.6619C0.142499 17.6851 0.173249 17.7294 0.217499 17.7826C0.382498 18.0001 0.809996 18.4494 1.62749 18.9076C2.81999 19.5676 4.87498 20.2501 8.24996 20.2501C11.6174 20.2501 13.6732 19.5676 14.8724 18.9076C15.8174 18.3819 16.2382 17.8726 16.3499 17.6994C16.3551 17.6951 16.36 17.6877 16.3645 17.6807L16.3675 17.6762C16.3692 17.6737 16.3708 17.6713 16.3724 17.6694C16.3799 17.6619 16.3874 17.6476 16.3874 17.6394C16.3915 17.6323 16.3935 17.6251 16.3954 17.6186L16.3954 17.6186C16.3973 17.612 16.399 17.6061 16.4024 17.6019C16.423 17.5628 16.4365 17.5225 16.4497 17.4831L16.4549 17.4676C16.4672 17.4307 16.4745 17.3887 16.4813 17.3495L16.4857 17.3244C16.4857 17.3101 16.4857 17.2944 16.4924 17.2869C16.4999 17.2801 16.4999 17.2644 16.4999 17.2569V13.0051ZM24 14.2499V9.40493C22.8375 10.3724 20.865 11.5199 17.7976 11.8799L17.6176 11.9024C17.6251 11.9324 17.6251 11.9549 17.6251 11.9849V11.9999V17.1674C22.32 16.7624 23.7225 14.9024 23.8725 14.6699C23.88 14.6586 23.8838 14.6474 23.8875 14.6361C23.8913 14.6249 23.895 14.6136 23.9025 14.6024C23.925 14.5574 23.94 14.5124 23.9543 14.4674C23.9682 14.4276 23.9757 14.3818 23.9824 14.3406C23.9833 14.3353 23.9842 14.3301 23.985 14.3249C23.985 14.3088 23.9893 14.2949 23.9933 14.282C23.9968 14.2708 24 14.2603 24 14.2499Z" fill="black"/>
</svg>

<svg xmlns="http://www.w3.org/2000/svg" width="24" height="24" fill="none" viewBox="0 0 24 24"><path fill="currentColor" fill-rule="evenodd" d="M23.625 7.875c-.736.79-2.51 2.182-6 2.625-.875-1.75-3.48-4.418-7.875-4.875 1.267-1.05 3.218-1.875 6-1.875 5.122 0 7.148 2.617 7.875 4.125m-7.952 3.898c.347-.199.682-.39.827-.523-.075-.217-.36-.741-.757-1.254-1.04-1.346-2.873-3.104-7.005-3.239-.055-.004-.122-.005-.175-.006l-.068-.001a3 3 0 0 0-.163 0H8.25c-4.08 0-6.334 1.768-7.4 3.231-.323.442-.7.976-.85 1.269.644.6 3.038 2.115 8.288 2.115 3.795 0 5.977-.787 7.133-1.447zm.827 1.232c-1.32.855-3.818 1.86-8.213 1.86-4.47 0-6.982-1.035-8.287-1.897v4.282q.001.016.007.033.007.018.008.035c0 .052.015.096.03.142q.02.077.052.142a.05.05 0 0 0 .016.03c0 .007.007.023.014.03.015.023.046.067.09.12.165.218.593.667 1.41 1.126 1.193.66 3.248 1.342 6.623 1.342 3.367 0 5.423-.682 6.622-1.342.945-.526 1.366-1.035 1.478-1.209l.014-.018.003-.005.005-.007a.1.1 0 0 0 .015-.03q.006-.01.008-.02l.007-.017c.021-.04.034-.08.048-.119l.005-.015a1 1 0 0 0 .026-.119l.005-.025c0-.014 0-.03.006-.037.008-.007.008-.023.008-.03zM24 14.25V9.405c-1.163.967-3.135 2.115-6.202 2.475l-.18.022c.007.03.007.053.007.083v5.182c4.695-.405 6.098-2.265 6.247-2.497a.1.1 0 0 0 .015-.034q.005-.016.015-.034a1 1 0 0 0 .08-.261l.003-.016q.001-.024.008-.043A.1.1 0 0 0 24 14.25" clip-rule="evenodd"/></svg>
